X:1
T:Deutsche Messe
T:Creative Commons Attribution Non Commercial 3.0
T:Creative Commons Attribution Non Commercial 3.0
T:Creative Commons Attribution Non Commercial 3.0
T:Creative Commons Attribution Non Commercial 3.0
T:Creative Commons Attribution Non Commercial 3.0
T:Creative Commons Attribution Non Commercial 3.0
T:Creative Commons Attribution Non Commercial 3.0
T:Creative Commons Attribution Non Commercial 3.0
T:Creative Commons Attribution Non Commercial 3.0
T:Creative Commons Attribution Non Commercial 3.0
T:Creative Commons Attribution Non Commercial 3.0
T:Creative Commons Attribution Non Commercial 3.0
T:Creative Commons Attribution Non Commercial 3.0
T:Creative Commons Attribution Non Commercial 3.0
T:Creative Commons Attribution Non Commercial 3.0
T:Creative Commons Attribution Non Commercial 3.0
T:Creative Commons Attribution Non Commercial 3.0
T:Creative Commons Attribution Non Commercial 3.0
T:Creative Commons Attribution Non Commercial 3.0
T:Creative Commons Attribution Non Commercial 3.0
T:Creative Commons Attribution Non Commercial 3.0
T:Creative Commons Attribution Non Commercial 3.0
T:Creative Commons Attribution Non Commercial 3.0
T:Creative Commons Attribution Non Commercial 3.0
T:Creative Commons Attribution Non Commercial 3.0
T:Creative Commons Attribution Non Commercial 3.0
T:Creative Commons Attribution Non Commercial 3.0
T:Creative Commons Attribution Non Commercial 3.0
C:Franz Schubert
Z:Joh. Phil. Neumann
Z:Creative Commons Attribution Non Commercial 3.0
%%score [ ( 1 2 ) 3 4 ] { ( 5 7 9 10 ) | ( 6 8 ) }
L:1/8
Q:1/4=80
M:4/4
K:F
V:1 treble nm="S\nA"
V:2 treble 
V:3 treble-8 nm="T"
V:4 bass nm="B"
V:5 treble nm="O"
V:7 treble 
V:9 treble 
V:10 treble 
V:6 bass 
V:8 bass 
V:1
"^Mäßig""^1. Zum Eingang"!p! A2 | A3 A A2 c2 | A4 G2 G2 | A3 G F2 BA | G4 !fermata!A2 A2 | %5
w: 1.~Wo-|hin soll ich mich|wen- den, wenn|Gram und Schmerz mich _|drü- cken? Wem|
w: 2.~Ach,|wenn ich dich nicht|hät- te, was|wär' mir Erd' und _|Him- mel? Ein|
 A3 A A2 c2 | A4 G2 G2 | A3 G F2 BA | (G4 !fermata!A2)!f! c2 | f3 e d2 c2 | (c2 d2) c2!p! cA | %11
w: künd' ich mein Ent-|zü- cken, wenn|freu- dig pocht mein _|Herz? _ Zur|Dir, zu Dir, o|Va- * ter, komm' *|
w: Bann- ort je- de|Stät- te, ich|selbst in Zu- falls _|Hand. _ Du|bist's, der mei- nen|We- * gen ein _|
 F2 F2 Fd cB | A4 !fermata!G2!f! c2 | f3 e d2 c2 | (c2 d2) c2!p! Ac | c3 B A2 G2 | F6 z2 | z8 | %18
w: ich in Freud' _ und _|Lei- den, du|sen- dest ja die|Freu- * den, du _|hei- lest je- den|Schmerz.||
w: sich'- res Ziel _ ver- *|lei- het, und|Erd' und Him- mel|wei- * het zu _|sü- ßem Hei- mat-|land.||
 !fermata!z6 |][K:Bb][M:4/4][Q:1/4=96]"^Mit Majestät""^2. Zum Gloria"!f! !>!B2 F2 !>!d2 BB | %20
w: |1.~Eh- re, Eh- re sei|
w: ||
 e2 dc d2 !fermata!c2 |!p! d2 cc B2 (cc) | A2 GG !fermata!F4 |!f! !>!B2 F2 !>!d2 BB | %24
w: Gott in der Hö- he!|Sin- get der Himm- li- schen|se- li- ge Schaar.|Eh- re, Eh- re sei|
w: ||||
 e2 dc d2 !fermata!c2 |!p! d2 cc B2 (cc) | A2 GG !fermata!F4 |:!p! A2 GF F2 BB | B2 cd (d2 c2) | %29
w: Gott in der Hö- he!|Stam- meln auch wir, die die|Er- de ge- bar.|Stau- nen nur kann ich und|stau- nend mich freu'n; _|
w: |||||
!f! d2 dd B2 AA | B2 cc !fermata!d4 |!ff! d2 cB g2 fe | (d2 c2) B4 :| z8 | !fermata!z8 |] %35
w: Va- ter der Wel- ten! doch|stimm' ich mit ein:|Eh- re sei Gott in der|Hö- * he!|||
w: ||||||
[K:G][M:6/8][Q:1/4=60]"^Nicht zu langsam""^3. Zum Evangelium und Credo"!p! G | G2 G GEA | %37
w: 1.~Noch|lag die Schöp- * fung|
w: 2.~Der|Mensch auch lag _ in|
 AGF G2 B | B2 A G2 F | E2 z z2 | D | G2 G GEA | AGF G2!f! B | B2 d de^c | d3- d2 |!p! D | %46
w: form- * los da, nach|hei- li- gem Be-|richt;|da|sprach der Herr: _ Es|wer- * de Licht! Er|sprach's, und es _ ward|Licht. _|Und|
w: Geis- * tes- nacht, er-|starrt von dunk- lem|Wahn;|der|Hei- land kam, _ und|es _ ward Licht! Und|hel- ler Tag _ bricht|an. _|Und|
 =c2 B A2 G | FcB A2!f! d |!>(! e2 A A>BA!>)! | A3- !fermata!A2!p! D | G2 G GEA | AGF G2!f! A | %52
w: Le- ben regt, und|re- * get sich, und|Ord- nung tritt _ her-|vor. _ Und|ü- ber- all, _ all-|ü- * ber- all tönt|
w: sei- ner Leh- re|heil'- * ger Strahl weckt|Le- ben nah _ und|fern; _ und|al- le Her- * zen|po- * chen Dank, und|
 BGc B2 A | G2 z z2!ff! d | dBe B2 A | (G3 G2) z | z6 | z3 z2 |] %58
w: Preis _ und Dank em-|por, tönt|Preis _ und Dank em-|por. _|||
w: prei- * sen Gott, den|Herrn, und|prei- * sen Gott, den|Herrn. _|||
[K:C][M:3/4][Q:1/4=50]"^Sehr langsam""^4. Zum Offertorium"!p! G | G>!<(!F E!<)!G!>(! cc!>)! | %60
w: 1.~Du|gabst, o Herr, mir Sein und|
w: ||
 c2 !fermata!B!f!!<(!d dd!<)! |!>(! d3 c B!>)!A | G4 !fermata!z |!p! G | %64
w: Le- ben, und Dei- ner|Leh- re himm- lisch|Licht.|Was|
w: ||||
 G>!<(!F EG!<)! c!>(!c!>)! | c2 B2 !fermata!z!p! c | c>A Ac _BG | A4 z |!pp! G | G>E EG FD | %70
w: kann da- für ich Staub Dir|ge- ben? Nur|dan- ken kann ich, mehr doch|nicht,|nur|dan- ken kann ich, mehr doch|
w: ||||||
 C3 z3 | z4 z |][K:Eb][M:3/4][Q:1/4=66]"^Sehr langsam""^5. Zum Sanctus"!pp! G4 G2 | F4 G2 | A6 | %75
w: nicht.||1.~Hei- lig,|hei- lig,|hei-|
w: |||||
 G6 | F4 F2 | F4 G2 | (E6 | F4) z2 | G4 G2 |!<(! F4 G2!<)! |!>(! A6!>)! | G6 |!pp! F4 F2 | F4 G2 | %86
w: lig,|hei- lig|ist der|Herr!|_|Hei- lig,|hei- lig,|hei-|lig,|hei- lig|ist nur|
w: |||||||||||
 E6- | E2 z2 z2 |!f! B4!<(! B2 | B4!<)! B2 |!>(! c6 | A6!>)! | A4 B2 | G4 E2 | F6- | F2 z2 z2 | %96
w: Er!|_|Er, der|nie be-|gon-|nen,|Er, der|im- mer|war,|_|
w: ||||||||||
!pp! G4 G2 |!<(! F4 E2!<)! |!>(! A6!>)! | G6 | c4 F2 | F4 G2 | E6- | E2 z2 z2 |] %104
w: e- wig|ist und|wal-|tet,|sein wird|im- mer|dar.|_|
w: ||||||||
[K:G][M:4/4][Q:1/4=50]"^Sehr langsam""^6. Nach der Wandlung"!p! B | B3 d cBAG | c2 B2 z BBG | %107
w: 1.~Be-|trach- tend Dei- ne Huld und|Gü- te, o mein Er-|
w: |||
!>(! E>F!>)! GA F3 |!p! A | B3 d cBAG | c2 B2 z BBG |!>(! E>F!>)! GA F3 |!mf! A | %113
w: lö- ser, ge- gen mich,|seh'|ich beim letz- ten A- bend-|mah- le im Krei- se|dei- ner Teu- ren dich.|Du|
w: ||||||
"^cresc." B3 A!<(! GB!<)! d!>(! e/c/!>)! | B2 A2 z!p! BAG |!<(! AB!<)! d/!>(!c/ B/A/!>)! (A2 B2) | %116
w: bricht das Brot, Du reichst den _|Be- cher. Du sprichst: Dies|ist mein Leib _ mein _ Blut, _|
w: |||
 z BA!<(!G A!<)!B!>(! d/c/ B/A/!>)! | A2 B2 z BBG |!>(! E>F G!>)!A F3 D | %119
w: nehmt hin und den- ket mei- * ner _|Lie- be, wenn op- fernd|ihr ein Glei- ches tut, wenn|
w: |||
!<(! G2!<)!!>(! B2!>)! E3!f! d/c/ | B2 A2 G2 z2 | z8 | z4 z2 z |] %123
w: op- fernd ihr ein _|Glei- ches tut.|||
w: ||||
[K:Bb][M:6/8][Q:1/4=60]"^Mäßig""^7. Zum Agnus Dei"!p! B | B2 F G2 A | c3 B2 B | %126
w: 1.~Mein|Hei- land, Herr und|Meis- ter! Dein|
w: 2.~In|die- ses Frie- dens|Pal- men er-|
!<(! Bc!<)!d!>(! dc!>)!B | A3- A z | B | B2 F G2 A | c3 B2 B |!<(! Bc!<)!d!>(! dc!>)!B | A3- A z | %133
w: Mund _ so se- * gens-|reich, _|sprach|einst das Wort des|Hei- les: "Der|Frie- * de sei _ mit|Euch!" _|
w: stirbt _ der Er- * den|Schmerz, _|sie|we- hen Heil und|La- bung in's|sturm- * be- weg- * te|Herz; _|
!p! c | c2 c cdA | c3 B2 B | Bdc BAG | A3- A z B | B2 F | G2 A | c3 B2!mf! d | %141
w: O|Lamm, das op- * fernd|tilg- te der|Mensch- * heit schwe- * re|Schuld, _ send'|uns auch|dei- nen|Frie- den durch|
w: und|auch die Er- * den-|freu- de, durch|ihn _ ge- hei- * ligt|blüht _ ent-|zü- cken-|der und|rei- ner dem|
!<(! dc!<)!B!>(! Bd!>)!c | (B3 B) z z | z6 | z3 z2 |] %145
w: Dei- * ne Gnad' _ und|Huld. _|||
w: se- * li- gen _ Ge-|müt. _|||
[K:F][M:3/4][Q:1/4=60]"^Nicht zu langsam""^8. Schlussgesang"!p! A>A AA !>!A>G | G2 F2 z2 | %147
w: Herr, du hast mein Fleh'n ver-|nom- men,|
w: ||
 D>F!<(! C/F/ A/c/!<)!!>(! c>B!>)! | A4 z2 | A>A AA !>!A>G | G2 F2!mf!!<(! B c/d/!<)! | %151
w: se- lig pocht's * in _ mei- ner|Brust,|in die Welt hin- aus, in's|Le- ben folgt mir _|
w: ||||
!>(! d/c/ B/G/!>)! (F2 A>)G | F4 z2 |!mf! c>G GG !>!B>A | A2 G2 z2 | A>A Ad !>!c>B | A4 z2 | %157
w: nun _ des _ Him- * mels|Lust.|Dort auch bist ja Du mir|na- he,|ü- ber- all und je- der-|zeit,|
w: ||||||
!f! B>c dc Bc | d2 B2!p! dc | B3 B AA | (A2 G2) z2 |!p! A>A AA !>!A>G | G2 F2 z2 | %163
w: al- ler Or- ten ist Dein|Tem- pel, wo das|Herz sich fromm Dir|weiht. _|Seg- ne, Herr, mich und die|Mei- nen,|
w: ||||||
 D>F!<(! C/F/ A/!<)!c/!>(! c>B!>)! | A4 z2 | A>A AA !>!A>G | G2 F2!mf!!<(! B c/d/!<)! | %167
w: seg- ne un- * sern _ Le- bens-|gang!|Al- les un- ser Tun und|Wir- ken sei ein _|
w: ||||
!>(! d/c/ B/!>)!G/ (F2 A>)G | F4!f!!<(! d e/f/!<)! |!>(! f/c/ d/B/!>)! A2 G2 | F4 z2 | z6 | %172
w: from- * mer _ Lob- * ge-|sang, sei ein _|from- * mer _ Lob- ge-|sang.||
w: |||||
 !fermata!z6 |][K:G][M:6/8][Q:1/4=66]"^Mäßig""^Anhang: Das Gebet des Herrn"!f! E | E2 F GFE | %175
w: |||
w: |||
 c>BA B!fermata!B,!p!B | B2 A GFE | A>BA !fermata!G2 |!f! E | E2 F GFE | c>BA B!fermata!B,!p!B | %181
w: ||||||
w: ||||||
 B2 A GFE | A>BA !fermata!G2 |!p! d | d>cB B>AG | AcB B!fermata!AB | B>AG G>FE | %187
w: ||||||
w: ||||||
 FAG !fermata!F2!f! E | E2 F GFE | A>Bc B!fermata!B, | B | B^GE E^cA |!p! ^G2 F E3 | z6 | %194
w: |||||||
w: |||||||
 z3 !fermata!z2 |] %195
w: |
w: |
V:2
 F2 | F3 F F2 F2 | F4 E2 E2 | E3 E D2 GF | FEDE F2 F2 | F3 F F2 F2 | F4 E2 E2 | E3 E D2 GF | %8
w: ||||||||
w: ||||||||
 FEDE F2 F2 | F3 F F2 A2 | (A2 B2) A2 F2 | F2 _E2 D2 G2 | F4 E2 F2 | F3 F F2 A2 | (A2 B2) A2 F2 | %15
w: |||||||
w: |||||||
 F3 F F2 E2 | F6 x2 | x8 | x6 |][K:Bb][M:4/4] F2 F2 B2 BB | c2 BA B2 A2 | A2 ^FF G2 (GG) | %22
w: |||||||
w: |||||||
 F2 =EE F4 | F2 F2 B2 BB | c2 BA B2 A2 | A2 ^FF G2 (GG) | F2 =EE F4 |: E2 EE D2 DE | %28
w: ||||||
w: ||||||
 F2 AB (B2 A2) | A2 AA G2 ^FF | G2 GG A4 | _A2 AA GBBB | (B2 A2) B4 :| x8 | x8 |][K:G][M:6/8] D | %36
w: ||||||||
w: ||||||||
 D2 D E2 E | D2 D D2 G | G2 F E2 ^D | E2 x x2 | D | D2 D E2 E | D2 D D2 G | G2 G A2 A | (A3 A2) | %45
w: |||||||||
w: |||||||||
 D | F2 G E2 D | DFG F2 G | G2 G G2 G | GFE F2 D | D2 D E2 E | D2 D D2 F | G2 G G2 F | G2 x x2 A | %54
w: |||||||||
w: |||||||||
 G2 G G2 F | (G3 G2) x | x6 | x5 |][K:C][M:3/4] E | E>D CE E^F | G2 GB BB | B3 A G^F | G4 x | E | %64
w: ||||||||||
w: ||||||||||
 E>D CE ^FF | G2 G2 x A | A>F FF GE | A4 x | E | E>C C^C DB, | C3 x3 | x5 |][K:Eb][M:3/4] E4 E2 | %73
w: |||||||||
w: |||||||||
 D4 E2 | E6 | E6 | E4 E2 | D4 D2 | (B,6 | D4) x2 | E4 E2 | D4 E2 | E6 | E6 | E4 E2 | D4 D2 | (B,6 | %87
w: ||||||||||||||
w: ||||||||||||||
 B,2) x2 x2 | E4 E2 | F4 F2 | =E6 | F6 | F4 F2 | E4 E2 | (D6 | D2) x2 x2 | _D4 D2 | _D4 D2 | %98
w: |||||||||||
w: |||||||||||
 (C2 E4) | E6 | E4 E2 | D4 D2 | (B,6 | B,2) x2 x2 |][K:G][M:4/4] G | G3 G AGFG | A2 G2 x GGE | %107
w: |||||||||
w: |||||||||
 ^C>C CE D3 | F | G3 G AGFG | A2 G2 x GGE | ^C>C CE D3 | F | G3 F GG G G/A/ | G2 F2 x GFG | %115
w: ||||||||
w: ||||||||
 F^G A =G/F/ (F2 G2) | x GFG F^G A =G/F/ | F2 G2 x GGE | ^C>C CE D3 D | D2 ^D2 E3 A | G2 F2 G2 x2 | %121
w: ||||||
w: ||||||
 x8 | x7 |][K:Bb][M:6/8] F | F2 F E2 F | F3 F2 F | F2 F F2 F | (F3 F) x | F | F2 F E2 F | F3 F2 F | %131
w: ||||||||||
w: ||||||||||
 F2 F F2 F | (F3 F) x | A | A2 A A2 A | A3 G2 G | GBA GF=E | (F3 F) x F | F2 F | E2 F | F3 F2 F | %141
w: ||||||||||
w: ||||||||||
 F2 F FBA | (B3 B) x x | x6 | x5 |][K:F][M:3/4] F>F FF E>E | E2 F2 x2 | D>D CC E>E | F4 x2 | %149
w: ||||||||
w: ||||||||
 F>F FF E>E | E2 F2 FF | FD (C2 E>)E | F4 x2 | E>E EE G>F | F2 E2 x2 | F>F FF A>G | F4 x2 | %157
w: ||||||||
w: ||||||||
 F>F FF FF | F2 F2 BA | G3 G FF | (F2 E2) x2 | F>F FF E>E | E2 F2 x2 | D>D CC E>E | F4 x2 | %165
w: ||||||||
w: ||||||||
 F>F FF E>E | E2 F2 FF | FD (C2 E>)E | F4 FF | F F/G/ F2 E2 | F4 x2 | x6 | x6 |][K:G][M:6/8] E | %174
w: ||||||||1.~An-|
w: ||||||||2.~O|
 E2 F GFE | c>BA BB,F | F2 F E^DE | F2 F G2 | E | E2 F GFE | c>BA BB,F | F2 F E^DE | F2 F G2 | B | %184
w: be- tend Dei- * ne|Macht * und Grö- ße ver-|sinkt in Nichts * mein|be- bend Ich.|Mit|wel- chem Na- * men,|Dei- * ner wür- dig, Du|Un- nenn- ba- * rer,|preis' ich Dich?|Wohl|
w: Va- ter, der _ Du|bist _ im Him- mel und|ü- ber- all _ zu|je- der Zeit,|zu|prei- sen Dei- * nen|Va- * ter- na- men sei|je- dem Her- * zen|Se- lig- keit!|O|
 B>AG D2 D | DAG GFF | G>FE B,2 B, | ^DFE D2 E | E2 F GFE | A>Bc BB, | E | E2 E E2 E | E2 ^D E3 | %193
w: mir! * ich darf Dich|Va- * ter nen- nen, nach|Dei- * nes Soh- nes|Un- * ter- richt; so|sprech' ich denn _ zu|Dir, _ mein Schöp- fer!|mit|kind- lich fro- her|Zu- ver- sicht.|
w: lass * durch Dei- ne|Huld _ und Lie- be, er-|schei- * nen uns Dein|Gna- * den- reich, und|treu- es Tun _ nach|Dei- * nem Wil- len|mach'|auch die Er- de|him- mel- gleich!|
 x6 | x5 |] %195
w: ||
w: ||
V:3
!p! c2 | c3 c c2 c2 | c4 c2 c2 | A3 A A2 df | c4 !fermata!c2 c2 | c3 c c2 c2 | c4 c2 c2 | %7
w: 3.~Doch|darf ich Dir mich|na- hen, mit|man- cher Schuld be- *|la- den? Wer|auf der Er- de|Pfa- den ist|
w: 4.~Süß|ist Dein Wort er-|schol- len: Zu|Mir, ihr Kum- mer- *|vol- len! Zu|Mir! Ich will euch|la- ben, euch|
 A3 A A2 df | !fermata!c6!f! c2 | c3 c d2 f2 | f4 f2!p! A2 | c2 A2 B2 d2 | c4 !fermata!c2!f! c2 | %13
w: Dei- nem Au- ge _|rein? Mit|kind- li- chem Ver-|trau- en eil'|ich in Va- ters|Ar- me, fleh'|
w: neh- men Angst und _|Not. Heil|mir! Ich bin er-|qui- cket! Heil|mir! Ich darf ent-|zü- cket mit|
 c3 c d2 f2 | f4 f2!p! c_e | _e3 d c2 B2 | A6 z2 | z8 | !fermata!z6 |] %19
w: reu- er- füllt: Er-|bar- me, er- *|barm', o Herr, dich|mein!|||
w: Dank und Preis und|Ju- bel mich _|freu'n in mei- nem|Gott.|||
[K:Bb][M:4/4]!f! !>!d2 d2 !>!d2 dg | g2 ff f2 !fermata!f2 |!p! ^f2 dd d2 (=ee) | %22
w: 2.~Eh- re, Eh- re sei|Gott in der Hö- he!|Kün- det der Ster- ne _|
w: |||
 c2 BB !fermata!A4 |!f! !>!d2 d2 !>!d2 dg | g2 ff f2 !fermata!f2 |!p! ^f2 dd d2 (=ee) | %26
w: strah- len- des Heer.|Eh- re, Eh- re sei|Gott in der Hö- he!|Säu- seln die Lüf- te, _|
w: ||||
 c2 BB !fermata!A4 |:!p! c2 BA B2 Bc | d2 cB f4 |!f! ^f2 ff d2 dd | d2 gg !fermata!^f4 | %31
w: brau- set das Meer.|Fei- ern- der We- sen un-|end- li- cher Chor|ju- belt im e- wi- gen|Dank- lied em- por:|
w: |||||
!ff! =f2 ed e2 de | (f3 e) d4 :| z8 | !fermata!z8 |][K:G][M:6/8]!p! B | B2 B c2 c | cBA B2 d | %38
w: Eh- re sei Gott in der|Hö- * he!|||3.~Doch|war- nend spricht der|hei'- * ge Mund: Nicht|
w: ||||4.~Ver-|leih' uns Kraft und|Mut, _ dass wir nicht|
 d2 c B2 A | G2 z z2 | c | B2 B c2 c | cBA B2!f! d | d2 d fge | f3- f2 |!p! d | A2 B c2 B | %47
w: frommt der Glaub' al-|lein,|nur|die Er- fül- lung|eu- * rer Pflicht kann|Le- ben ihm _ ver-|leih'n. _|Drum|gib ein gläu- bi-|
w: nur die We- ge|seh'n,|die|der Er- lö- ser|ging, _ dass wir auch|stre- ben nach- * zu-|geh'n. _|Lass|so Dein E- van-|
 A2 G/B/ d2!f! d |!>(! c2 e e2 e!>)! | (ed^c !fermata!d2)!p! =c | B2 B c2 c | cBA B2!f! d | %52
w: ges Ge- * müt! Und|gib uns auch, o|Gott, _ _ _ ein|lie- bend Herz, das|fromm * und treu stets|
w: ge- li- * um uns|Him- mels- bot- schaft|sein, _ _ _ und|führ' uns, Herr, durch|Dei- * ne Huld in's|
 dBe d2 c | B2 z z2!ff! f | g2 e d2 c | (B3 B2) z | z6 | z3 z2 |][K:C][M:3/4]!p! G | %59
w: fol- * get dem Ge-|bot, stets|fol- get dem Ge-|bot! _|||2.~Wohl|
w: Reich _ der Won- nen|ein, in's|Reich der Won- nen|ein. _||||
 G>!<(!G G!<)!c!>(! cd!>)! | e2 !fermata!d!f!!<(!B Bc!<)! |!>(! d3 e d!>)!c | B4 !fermata!z | %63
w: mir! Du willst für Dei- ne|Lie- be ja nichts, als|wie- der Lieb' al-|lein;|
w: ||||
!p! G | G>!<(!G Gc!<)! _e!>(!c!>)! | d2 d2 !fermata!z!p! f | f>c cc cc | c4 z |!pp! c | %69
w: und|Lie- be, dank- er- füll- te|Lie- be soll|mei- nes Le- bens Won- ne|sein,|soll|
w: ||||||
 c>G G_B AF | E3 z3 | z4 z |][K:Eb][M:3/4]!pp! B4 B2 | B4 B2 | c6 | B6 | c4 c2 | A4 B2 | (G6 | %79
w: mei- nes Le- bens Won- ne|sein.||2.~Hei- lig,|hei- lig,|hei-|lig,|hei- lig|ist der|Herr!|
w: ||||||||||
 B4) z2 | B4 B2 |!<(! B4 _d2!<)! |!>(! c6!>)! | B6 |!pp! A4 A2 | A4 B2 | G6- | G2 z2 z2 | %88
w: _|Hei- lig,|hei- lig,|hei-|lig,|hei- lig|ist nur|Er!|_|
w: |||||||||
!f! G4!<(! G2 | G4!<)! G2 |!>(! (G4 c2) | c6!>)! | B4 B2 | B4 B2 | B6- | B2 z2 z2 |!pp! B4 B2 | %97
w: All- macht,|Wun- der,|Lie- *|be,|Al- les|rings- um-|her!|_|Hei- lig,|
w: |||||||||
!<(! A4 G2!<)! |!>(! (A2 c4)!>)! | B6 | c4 c2 | A4 B2 | G6- | G2 z2 z2 |][K:G][M:4/4]!p! d | %105
w: hei- lig,|hei- *|lig,|hei- lig|ist der|Herr!|_|2.~Wir|
w: ||||||||
 d3 d ddcB | d2 d2 z BBB |!>(! G>F!>)! EA A3 |!p! d | d3 d ddcB | d2 d2 z BBB |!>(! G>F!>)! EA A3 | %112
w: op- fern hier, nach dei- nem|Wor- te, auf Dei- nem|hei- li- gen Al- tar;|und|Du, mein Hei- land, bist zu-|ge- gen, des Geis- tes|Aug' wird dich ge- wahr.|
w: |||||||
!mf! d |"^cresc." d3 d!<(! dd!<)! d!>(! g/e/!>)! | d2 d2 z!p! ddB |!<(! dd!<)!e!>(!d!>)! d4 | %116
w: Herr,|der Du Schmerz und Tod ge- *|tra- gen, um uns das|Le- ben zu ver- leih'n,|
w: ||||
 z dc!<(!B d!<)!d!>(!ed!>)! | d2 d2 z BBB |!>(! G>F E!>)!A A3 d |!<(! G2!<)!!>(! A2!>)! G3!f! e | %120
w: lass die- ses Him- mels- brot uns|La- bung im Le- ben|und im To- de sein, im|Le- ben und im|
w: ||||
 d2 c2 B2 z2 | z8 | z4 z2 z |][K:Bb][M:6/8]!p! d | d2 d e2 c | e3 d2 d |!<(! de!<)!f!>(! fe!>)!d | %127
w: To- de sein!|||3.~Herr,|uns'- re Lie- ben|al- le, die|nun _ be- reits _ von|
w: |||4.~Mein|Hei- land, Herr und|Meis- ter, o|sprich _ er- bar- * mungs-|
 c3- c z | d | d2 d e2 c | e3 d2 d |!<(! de!<)!f!>(! fe!>)!d | c3- c z |!p! c | c2 c A2 d | %135
w: hier _|in's|Land des Frie- dens|gin- gen, nimm|sie, _ nimm sie _ zu|Dir! _|Lass|einst sie dort uns|
w: reich _|zu|uns das Wort des|Hei- les: "Der|Frie- * de sei _ mit|Euch!" _|Send'|uns den Him- mels-|
 d3 d2 d | c2 c c2 c | c3- c z d | d2 d | e2 c | e3 d2!mf! f |!<(! fe!<)!d!>(! df!>)!e | %142
w: fin- den! O|se- li- ger Ver-|ein, _ wenn|wir des|Him- mels-|frie- dens zu-|sam- * men uns _ er-|
w: frie- den, den|nie die Er- de|gibt, _ der|nur dem|Her- zen|win- ket, das|rein _ und treu _ Dich|
 (d3 d) z z | z6 | z3 z2 |][K:F][M:3/4]!p! c>c cc !>!B>B | B2 A2 z2 | F>F!<(! FF!<)!!>(! A>G!>)! | %148
w: freu'n! _|||Herr, du hast mein Fleh'n ver-|nom- men,|se- lig pocht's in mei- ner|
w: liebt! _||||||
 F4 z2 | c>c cc !>!B>B | B2 A2!mf!!<(! F A/B/!<)! |!>(! A d/B/!>)! (A2 c>)B | A4 z2 | %153
w: Brust,|in die Welt hin- aus, in's|Le- ben folgt mir _|nun des _ Him- * mels|Lust.|
w: |||||
!mf! G>c cc !>!c>c | c2 c2 z2 | c>c cd !>!e>e | c4 z2 |!f! d>_e fe de | f2 d2!p! dd | d3 d dd | %160
w: Dort auch bist ja Du mir|na- he,|ü- ber- all und je- der-|zeit,|al- ler Or- ten ist Dein|Tem- pel, wo das|Herz sich fromm Dir|
w: |||||||
 c4 z2 |!p! c>c cc !>!B>B | B2 A2 z2 | F>F!<(! FF!<)!!>(! A>G!>)! | F4 z2 | c>c cc !>!B>B | %166
w: weiht.|Seg- ne, Herr, mich und die|Mei- nen,|seg- ne un- sern Le- bens-|gang!|Al- les un- ser Tun und|
w: ||||||
 B2 A2!mf!!<(! F A/B/!<)! |!>(! A d/!>)!B/ (A2 c>)B | A4!f!!<(! BB!<)! |!>(! A B/d/!>)! c3 B | %170
w: Wir- ken sei ein _|from- mer _ Lob- * ge-|sang, sei ein|from- mer _ Lob- ge-|
w: ||||
 A4 z2 | z6 | !fermata!z6 |][K:G][M:6/8]!f! E | E2 F GFE | c>BA B!fermata!B!p!^d | ^d2 B BAG | %177
w: sang.|||3.~Herr,|der Du nährst * die|jun- * gen Ra- ben, Du|kennst auch Dei- * ner|
w: |||4.~Will|die Ver- su- * chung|uns _ ver- lo- cken, gib|Kraft, o Herr, _ zum|
 c>dc !fermata!B2 |!f! E | E2 F GFE | c>BA B!fermata!B!p!^d | ^d2 B BAG | c>dc !fermata!B2 |!p! d | %184
w: Kin- * der Not.|Nicht|ist ver- ge- * bens|uns- * ser Fle- hen: Gib|uns auch täg- * lich|un- * ser Brot!|Ver-|
w: Wi- * der- stand!|So|vor der See- * le|höchs- * tem Ü- bel, vor|Sün- de schütz' _ uns|Dei- * ne Hand!|Send'|
 d2 d d>cB | d2 d d!fermata!dB | B2 B B>AG | B2 B !fermata!B2!f! E | E2 F GFE | A>Bc B!fermata!B | %190
w: gib uns was _ wir|ir- rend fehl- ten, wenn|wir die Schuld _ vor|Dir be- reu'n, wie|wir, auf Dein _ Ge-|bot, _ den Brü- dern,|
w: uns Ge- duld _ und|Trost in Lei- den! Und|kann's zu un- * ser'm|Heil ge- scheh'n, so|lass, durch Dei- * ne|Va- * ter- gü- te,|
 E | E2 d ^c2 c |!p! B2 A ^G2 z | z6 | z3 !fermata!z2 |] %195
w: wie|wir den Fein- den|auch ver- zeih'n.|||
w: den|bit- tern Kelch vor-|ü- ber- geh'n!|||
V:4
!p! F,2 | F,3 F, F,2 A,2 | C,4 C,2 C,2 | ^C,3 C, D,2 G,,2 | C,4 !fermata!F,2 F,2 | F,3 F, F,2 A,2 | %6
w: ||||||
 C,4 C,2 C,2 | ^C,3 C, D,2 G,,2 | (C,4 !fermata!F,2)!f! A,2 | A,3 A, B,2 F,2 | B,4 F,2!p! F,2 | %11
w: |||||
 A,,2 C,2 B,,2 G,,2 | C,4 !fermata!C,2!f! A,2 | A,3 A, B,2 F,2 | B,4 F,2!p! F,2 | %15
w: ||||
 B,,3 B,, C,2 C,2 | F,6 z2 | z8 | !fermata!z6 |][K:Bb][M:4/4]!f! !>!B,2 B,2 !>!G,2 G,G, | %20
w: |||||
 C,2 F,F, B,2 !fermata!F,2 |!p! D,2 D,D, G,2 (C,C,) | F,2 C,C, !fermata!F,4 | %23
w: |||
!f! !>!B,2 B,2 !>!G,2 G,G, | C2 F,F, B,2 !fermata!F,2 |!p! D,2 D,D, G,2 (C,C,) | %26
w: |||
 F,2 C,C, !fermata!F,4 |:!p! F,2 F,F, F,2 F,F, | F,2 F,F, F,4 |!f! D,2 D,D, G,2 D,D, | %30
w: ||||
 G,2 E,E, !fermata!D,4 |!ff! B,2 B,B, E,2 F,G, | F,4 B,,4 :| z8 | !fermata!z8 |] %35
w: |||||
[K:G][M:6/8]!p! G, | G,2 G, C,2 C, | D,2 D, G,2 G,, | G,,2 A,, B,,2 B,, | E,2 z z2 | F, | %41
w: ||||||
 G,2 G, C,2 C, | D,2 D, G,2!f! G, | G,2 B, A,2 A, | D,3- D,2 |!p! D, | D,2 D, D,2 D, | %47
w: ||||||
 D,2 D, D,2!f! B,, |!>(! C,2 C, ^C,2 C,!>)! | D,3- !fermata!D,2!p! F, | G,2 G, C,2 C, | %51
w: ||||
 D,2 D, G,2!f! D, | G,2 C, D,2 D, | E,2 z z2!ff! C, | B,,G,,C, D,2 D, | (G,,3 G,,2) z | z6 | %57
w: ||||||
 z3 z2 |][K:C][M:3/4]!p! C, | C,>!<(!C, C,!<)!C,!>(! A,,A,,!>)! | %60
w: |3.~Mich|selbst, o Herr, mein Tun und|
 G,,2 !fermata!G,,!f!!<(!G,, G,,A,,!<)! |!>(! B,,3 C, D,!>)!D, | G,,4 !fermata!z |!p! C, | %64
w: Den- ken und Leid und|Freu- de opf'r ich|Dir;|Herr,|
 C,>!<(!C, C,C,!<)! A,,!>(!A,,!>)! | G,,2 G,,2 !fermata!z!p! F,, | F,,>F,, F,,A,, C,C, | F,4 z | %68
w: nimm durch Dei- nes Soh- nes|Op- fer dies|Her- zens- op- fer auch von|mir,|
!pp! C, | C,>C, C,E, F,,G,, | C,3 z3 | z4 z |][K:Eb][M:3/4]!pp! E,4 E,2 | B,,4 E,2 | A,,6 | E,6 | %76
w: dies|Her- zens- op- fer auch von|mir.||||||
 A,,4 A,,2 | B,,4 B,,2 | (E,6 | B,,4) z2 | E,4 E,2 |!<(! B,,4 B,,2!<)! |!>(! A,,6!>)! | E,6 | %84
w: ||||||||
!pp! B,,4 B,,2 | B,,4 B,,2 | E,6- | E,2 z2 z2 |!f! E,4!<(! E,2 | _D,4!<)! D,2 |!>(! C,6 | F,6!>)! | %92
w: ||||||||
 D,4 D,2 | E,4 G,,2 | B,,6- | B,,2 z2 z2 |!pp! E,4 E,2 |!<(! E,4 E,2!<)! |!>(! A,,6!>)! | E,6 | %100
w: ||||||||
 A,,4 A,,2 | B,,4 B,,2 | E,6- | E,2 z2 z2 |][K:G][M:4/4]!p! G, | G,3 B, F,G,D,E, | %106
w: ||||||
 F,2 G,2 z G,,G,,G,, |!>(! A,,>A,,!>)! A,,^C, D,3 |!p! D, | G,3 B, F,G,D,E, | F,2 G,2 z G,,G,,G,, | %111
w: |||||
!>(! A,,>A,,!>)! A,,^C, D,3 |!mf! D, |"^cresc." G,3 D,!<(! B,,G,!<)!B,!>(!C!>)! | %114
w: |||
 D2 D,2 z!p! G,D,E, |!<(! D,B,,!<)!A,,!>(!D,!>)! G,,4 | z G,D,!<(!E, D,!<)!B,,!>(!A,,D,!>)! | %117
w: |||
 G,,2 G,,2 z G,,G,,G,, |!>(! A,,>A,, A,,!>)!^C, D,3 D, |!<(! B,,2!<)!!>(! B,,2!>)! C,3!f! A,, | %120
w: |||
 D,2 D,2 G,,2 z2 | z8 | z4 z2 z |][K:Bb][M:6/8]!p! B, | B,2 B, B,2 B, | B,3 B,2 B, | %126
w: ||||||
!<(! B,2!<)! B,!>(! A,2!>)! B, | F,3- F, z | B, | B,2 B, B,2 B, | B,3 B,2 B, | %131
w: |||||
!<(! B,2!<)! B,!>(! A,2!>)! B, | F,3- F, z |!p! F, | F,2 F, F,2 F, | G,3 G,2 F, | =E,2 E, C,2 C, | %137
w: ||||||
 F,3- F, z B, | B,2 B, | B,2 B, | B,3 B,2!mf! F, |!<(! F,2!<)! F,!>(! F,2!>)! F, | (B,,3 B,,) z z | %143
w: ||||||
 z6 | z3 z2 |][K:F][M:3/4]!p! F,>F, F,F, !>!C,>C, | D,2 D,2 z2 | %147
w: ||||
 B,,>B,,!<(! A,, F,,/A,,/!<)!!>(! C,>C,!>)! | F,4 z2 | F,>F, F,F, !>!C,>C, | %150
w: |||
 D,2 D,2!mf!!<(! D, C,/B,,/!<)! |!>(! F,B,,!>)! C,7/2 C,/ | F,4 z2 |!mf! C,>C, C,C, !>!E,>F, | %154
w: ||||
 C,2 C,2 z2 | F,>F, F,B,, !>!C,>C, | F,4 z2 |!f! B,>B, B,B, B,B, | B,2 B,,2!p! G,,A,, | %159
w: |||||
 B,,3 B,, =B,,B,, | C,4 z2 |!p! F,>F, F,F, !>!C,>C, | D,2 D,2 z2 | %163
w: ||||
 B,,>B,,!<(! A,, F,,/A,,/!<)!!>(! C,>C,!>)! | F,4 z2 | F,>F, F,F, !>!C,>C, | %166
w: |||
 D,2 D,2!mf!!<(! D, C,/B,,/!<)! |!>(! F,B,,!>)! C,7/2 C,/ | D,4!f!!<(! B,, C,/D,/!<)! | %169
w: |||
!>(! F,B,,!>)! C,2 C,2 | F,,4 z2 | z6 | !fermata!z6 |][K:G][M:6/8]!f! E, | E,2 F, G,F,E, | %175
w: ||||||
 C>B,A, B,!fermata!B,,!p!B,, | B,,2 ^D, E,B,,C, | D,2 D, !fermata!G,2 |!f! E, | E,2 F, G,F,E, | %180
w: |||||
 C>B,A, B,!fermata!B,,!p!B,, | B,,2 ^D, E,B,,C, | D,2 D, !fermata!G,2 |!p! G, | G,2 G, G,2 G, | %185
w: |||||
 F,2 G, D,!fermata!D,^D, | E,2 E, E,2 E, | B,,^D,E, !fermata!B,,2!f! E, | E,2 F, G,F,E, | %189
w: ||||
 A,>B,C B,!fermata!B,, | ^G,, | ^G,,2 G,, A,,2 A,, |!p! B,,2 B,, E,2 z | z6 | z3 !fermata!z2 |] %195
w: ||||||
V:5
 [CFA]2 | [CFA]3 [CFA] [CFA]2 [CFc]2 | ([FA]4 [EG]2) [EG]2 | [A,EA]3 [A,EG] [A,DF]2 [GB]A | %4
 G4 !fermata!A2 [FA]2 | [CFA]3 [CFA] [CFA]2 [CFc]2 | ([FA]4 [EG]2) [EG]2 | A3 G F2 [GB]A | %8
 (G4 !fermata!A2) c2 | [Fcf]3 [Fce] [FBd]2 [FAc]2 | ([Ac]2 [Bd]2) [Ac]2 cA | [CF]2 [_EF]2 FdcB | %12
 ([FA]4 !fermata![EG]2) c2 | [Fcf]3 [Fce] [FBd]2 [FAc]2 | ([Ac]2 [Bd]2) [Ac]2 Ac | %15
 [_EFc]3 [DFB] [CFA]2 [B,C=EG]2 | [A,F]6 Ac | [_EFc]3 [DFB] [CFA]2 [B,C=EG]2 | !fermata![A,CF]6 |] %19
[K:Bb][M:4/4] [FB]2 F2 [Bd]2 [GB]2 | [Gce]2 [FBd][FAc] [FBd]2 !fermata![FAc]2 | %21
 [^FAd]2 [FAc][FAc] [DGB]2 [=EGc][EGc] | [CFA]2 [B,C=EG]2 !fermata![A,CF]4 | %23
 !>![FB]2 F2 [Bd]2 [GB]2 | [Gce]2 [FBd][FAc] [FBd]2 !fermata![FAc]2 | %25
 [^FAd]2 [FAc][FAc] [DGB]2 [=EGc][EGc] | [CFA]2 [B,C=EG]2 !fermata![A,CF]4 |: A2 GF F2 B2 | %28
 [FB]2 [Ac][Bd] ([Bd]2 [Ac]2) | [^FAd]2 [FAd][FAd] [DGB]2 [DFA]2 | [DGB]2 [Gc]2 !fermata![^FAd]4 | %31
 d2 cB [Bg]2 fe | [Bd]2 [=Ac]2 [FB]4 :| d2 cB [Bg]2 fe | ([Bd]2 [=Ac]2) !fermata![FB]4 |] %35
[K:G][M:6/8] [B,DG] | [B,DG]2 [B,DG] GEA | AGF G2 [B,GB] | [B,GB]2 [CFA] [B,EG]2 [A,B,^DF] | %39
 [G,B,E]2 [G,B,E] [A,C=D]2 | [A,CD] | [B,DG]2 [B,DG] GEA | AGF G2 [DGB] | [DGB]2 [DGd] de[A^c] | %44
 (([FAd]3 [FAd]2)) | D | [F=c]2 [GB] [EA]2 [DG] | ([DF][Fc][GB]) [FA]2 [DGd] | [Ge]2 [EGA] A>BA | %49
 A3- !fermata!A2 [=CD] | [B,DG]2 [B,DG] [EG]E[EA] | AGF [DG]2 A | [DGB][B,G][EGc] [DGB]2 [CFA] | %53
 [B,G]2 [B,G] [DFA]2 [FAd] | dBe [DGB]2 [CDFA] | G3- G2 z | G2 G G2 ^F | (G3 G2) |] %58
[K:C][M:3/4] [EG] | ([EG]>!<(![DF][CE])!<)![CEG][CEc][D^Fc] | %60
 (([EGc]2 !fermata![DGB])) [DBd][DBd][DBd] | [DBd]3 [EAc][DGB][CD^FA] | [B,DG]4 !fermata!z | [EG] | %64
 ([EG]>[DF][CE])[CEG][_E^Fc][CFc] | (c2 B2) !fermata!z [=FAc] | [FAc]>[CFA][CFA][CFc][CG_B][CEG] | %67
 [CFA]4 z | [CEG] | [CEG]>[G,CE][G,CE][_B,^CG][A,DF][F,G,=B,D] | %70
 [E,G,C]3 ([_B,^CG][A,DF][F,G,=B,D]) | (([F,G,B,D]2 [E,G,C]2)) z |][K:Eb][M:3/4] [B,EG]4 [B,EG]2 | %73
 [B,DF]4 [B,EG]2 | (([CEA]6 | [B,EG]6)) | [CEF]4 [CEF]2 | [A,DF]4 [B,DG]2 | (([G,B,E]6 | %79
 [B,DF]4)) z2 | [B,EG]4 [B,EG]2 | [B,DF]4 [_DEG]2 | (([CEA]6 | [B,EG]6)) | [A,EF]4 [A,EF]2 | %85
 [A,DF]4 [B,DG]2 | E6- | E2 z2 z2 | [EB]4 [EB]2 | [FB]4 [FB]2 | [=Ec]6 | [FA]6 | [B,FA]4 [B,FB]2 | %93
 [B,EG]4 [B,E]2 | F6- | F2 z2 z2 | [B,_DG]4 [B,DG]2 | [A,_DF]4 [G,DE]2 | A6 | [B,EG]6 | %100
 [CEFc]4 [CEF]2 | [A,DF]4 [B,DG]2 | E6- | E2 z2 z2 |][K:G][M:4/4] [DGB] | %105
 [DGB]3 [DGd] ([DAc][DGB][CFA][B,G]) | [DAc]2 [DGB]2 z [B,GB][B,GB][B,EG] | %107
 [^CE]>[CF][CG][EA] [DF]3 | [DFA] | [DGB]3 [DGd] ([DAc][DGB][CFA][B,G]) | %110
 [DAc]2 [DGB]2 z [B,GB][B,GB][B,EG] | [^CE]>[CF][CG][EA] [DF]3 | [DFA] | %113
 [DGB]3 [DFA] [DG][DGB] [DGd][Ge]/[Ac]/ | ([GB]2 [FA]2) z [DGB][DFA][B,G] | %115
 [DFA][D^GB] [Ad]/c/[=GB]/[FA]/ ([FA]2 [GB]2) | z [DGB][CFA][B,G] [DFA][D^GB] d/c/[=GB]/[FA]/ | %117
 ([FA]2 [GB]2) z [B,GB][B,GB][B,EG] | [^CE]>[CF][CG][EA] [DF]3 D | [DG]2 [^DFB]2 E3 d/c/ | %120
 [DGB]2 [CDFA]2 [B,DG]3 [Gd] | [Gd]2 [F^d]2 (([Fd] [Ee]2)) =d/c/ | [DGB]2 [CDFA]2 [B,DG]3 |] %123
[K:Bb][M:6/8] [FB] | [FB]2 F G2 [FA] | (([Fc]3 [FB]2)) [FB] | (Bcd) (dcB) | ([FA]3 [FA]) z | [FB] | %129
 [FB]2 F G2 [FA] | (([Fc]3 [FB]2)) [FB] | (Bcd) (dcB) | ([FA]3 [FA]) z | [Ac] | [Ac]2 [Ac] cdA | %135
 (([Ac]3 [GB]2)) [GB] | ([GB][Bd][Ac] [GB][FA][=EG]) | ([FA]3 [FA]) z [FB] | [FB]2 F | G2 [FA] | %140
 (([Fc]3 [FB]2)) [Fd] | [Fd][Ec][DFB] [DFB][Fd][EFAc] | (([DFB]3 [DFB])) z [F_AB] | %143
 B2 B B2 [EF=A] | (([B,DFB]3 [B,DFB]2)) |][K:F][M:3/4] [FA]>[FA][FA][FA][EA]>[EG] | [EG]2 F2 z2 | %147
 D>[DF] C/F/A/c/ c>B | A4 z2 | [FA]>[FA][FA][FA][EA]>[EG] | [EG]2 F2 (Bc/d/) | (d/c/B/G/) F2 A>G | %152
 F4 z2 | [Ec]>[EG][EG][EG][GB]>[FA] | [FA]2 [EG]2 z2 | [FA]>[FA][FA][DFd][EAc]>[EGB] | [CFA]4 z2 | %157
 ([DB]>[_Ec][Fd][Ec][DB][Ec]) | ([Fd]2 [DB]2) ([Bd][Ac]) | [DGB]3 [DGB][DFA][DFA] | %160
 ([FA]2 [EG]2) z2 | [FA]>[FA][FA][FA][EA]>[EA] | [EG]2 F2 z2 | (D>[DF] C/F/A/c/) c>B | [FA]4 z2 | %165
 [FA]>[FA][FA][FA][EA]>[EG] | ([EG]2 F2) (Bc/d/) | (d/c/B/G/) (F2 A>)G | F4 (de/f/) | %169
 (f/c/d/B/) [FA]2 [EG]2 | [A,F]3 [A,CF][B,DF][C_EF] | F6 | !fermata!F6 |][K:G][M:6/8] E | %174
 (E2 F GFE) | (c>BA) (B!fermata!B,)[^DFB] | ([^DFB]2 [B,FA] [B,EG][A,DF][G,E]) | A>BA !fermata!G2 | %178
 E | (E2 F GFE) | (c>BA) (B!fermata!B,)[^DFB] | ([^DFB]2 [B,FA] [B,EG][A,DF][G,E]) | %182
 A>BA !fermata!G2 | [Bd] | [Bd]>[Ac][GB] B>A[DG] | AcB ([GB]!fermata![FA])[FB] | %186
 [GB]>[FA][EG] G>F[B,E] | [^DF][FA][EG] !fermata![DF]2 E | (E2 F GFE) | (A>Bc) (B!fermata!B,) | %190
 [EB] | (B^GE) E^cA | [B,E^G]2 [^DF] E2 [EB] | (Bec) (c[E^c][EB]/[FA]/) | %194
 [B,E^G]2 [A,B,^DF] !fermata![^G,B,E]2 |] %195
V:6
!p! F,2 | F,3 F, F,2 A,2 | C,6 C,2 | ^C,3 C, D,2 G,,2 | C4 C2 x2 | F,3 F, F,2 A,2 | C,6 C,2 | %7
 [^C,A,]4 [D,A,]2 G,,2 | C6!f! C2 | [A,C]3 [A,C] [B,D]2 F,2 | B,4 F,2!p! [F,A,]2 | %11
 [A,,F,]2 [C,A,]2 [B,,B,]2 G,,2 | (C,4 C,2)!f! [A,C]2 | [A,C]3 [A,C] [B,D]2 F,2 | B,4 F,2!p! F,2 | %15
 B,,3 B,, C,2 C,2 | F,6!mf! F,2 |!>(! B,,3!>)! B,, C,2 C,2 | F,,6 |] %19
[K:Bb][M:4/4]!f! !>![B,D]2 [B,D]2 !>![G,D]2 [G,D]2 | [C,C]2 F,F, B,,2 F,2 |!p! D,2 D,D, G,2 C,C, | %22
 F,2 C,2 F,,4 |!f! [B,D]2 [B,D]2 !>![G,D]2 [G,D]2 | C,2 F,F, B,,2 F,2 |!p! D,2 D,D, G,2 C,C, | %26
 F,2 C,2 F,,4 |:!p! C2 B,A, B,3 C | D2 CB, F4 |!f! D,2 D,D, G,2 D,2 | G,2 E,2 D,4 | %31
!ff! F2 ED E2 x2 | F,2 F,,2 B,,4 :|!p! F2 ED E2 x2 | F,2 F,,2 B,,4 |][K:G][M:6/8]!p! G, | %36
 G,2 G, C,2 C, | D,2 D, [G,,G,]2 G,, | G,,2 A,, B,,2 B,, | E,2 E, F,2 | F, | G,2 G, C,2 C, | %42
 D,2 D, G,2!f! G, | G,2 B, A,2 A, | D,3- D,2 |!p! D, | [D,A,]2 [D,B,] [D,C]2 [D,B,] | %47
 A,2 G,/B,/ D2!f! B,, |!>(! [C,C]2 C, ^C,2!p! C,!>)! | D,3- D,2!p! F, | G,2 G, C,2 C, | %51
 D,2 D, G,2!f! D, | G,2 C, D,2 D, | E,2 E, D,2!ff! C, | B,,G,,C, D,2 D, | G,,3- G,,2 z | %56
!p! G,,2 G,, G,,2 G,, | (G,,3 G,,2) |][K:C][M:3/4]!p! [C,G,] | [C,G,]3 (C,!>(!A,,)A,,!>)! | %60
 G,,3!f!!<(! G,,G,,A,,!<)! |!>(! B,,3 C,D,!>)!D, | G,,4 z |!p! [C,G,] | %64
 [C,G,]3!<(! (C,!<)!A,,)!>(!A,,!>)! | G,,4 z!p! F,, | F,,3 A,,C,C, | F,,4 z |!pp! C, | %69
 C,3 (E,,F,,G,,) | C,3 (E,,F,,G,,) | [C,,C,]4 z |][K:Eb][M:3/4]!pp! E,4 E,2 | B,,4 E,2 | (A,,6 | %75
 E,6) | A,,4 A,,2 | B,,4 B,,2 | (E,6 | B,,4) z2 | E,4 E,2 |!<(! B,,4 B,,2!<)! |!>(! (A,,6!>)! | %83
 E,6) |!pp! B,,4 B,,2 | B,,4 B,,2 | E,6- | E,2 z2 z2 |!f! [E,G,]4!<(! [E,G,]2 | %89
 [_D,G,]4!<)! [D,G,]2 |!>(! ([C,G,]4 C2) | [F,C]6!>)! | D,4 D,2 | E,4 G,,2 | B,,6- | B,,2 z2 z2 | %96
!pp! E,4 E,2 |!<(! E,4 E,2!<)! |!>(! A,,6!>)! | E,6 | A,,4 A,,2 | B,,4 B,,2 | (E,,6 | %103
 E,,2) z2 z2 |][K:G][M:4/4]!p! G, | G,3 (B, F,G,D,E,) | F,2 G,2 z G,,G,,G,, | %107
!>(! [A,,G,]>[A,,F,]!>)![A,,E,][^C,A,] [D,A,]3 |!p! D, | G,3 (B, F,G,D,E,) | F,2 G,2 z G,,G,,G,, | %111
!>(! [A,,G,]>[A,,F,]!>)![A,,E,][^C,A,] [D,A,]3 |!mf! D, | %113
"^cresc." G,3 D,!<(! B,,G,!<)! B,!>(!C!>)! | (D2 D,2) z!p! (G,D,E,) | %115
!<(! (D,B,,!<)!!>(!A,,!>)!D,) G,,4 | z (G,D,!<(!E,) (D,!<)!B,,!>(!A,,D,)!>)! | G,,4 z G,,G,,G,, | %118
!>(! [A,,G,]>[A,,F,][A,,E,]!>)![^C,A,] [D,A,]3 D, | %119
!<(! [B,,G,]2!<)!!>(! [B,,A,]2!>)! [C,G,]3!f! A,, | D,2 D,2 G,,3 [B,,G,] | %121
!<(! G,2 A,2!<)!!>(! (A, G,2)!>)!!p! x | D,2 D,2 G,,3 |][K:Bb][M:6/8]!p! [B,D] | %124
 [B,D]2 [B,D] [B,E]2 [B,C] | (([B,E]3 [B,D]2))[K:treble] [B,D] |!<(! (DE!<)!F)!>(! (FE!>)!D) | %127
 ([F,C]3 [F,C]) z | [B,D] | [B,D]2 [B,D] [B,E]2 [B,C] | (([B,E]3 [B,D]2))[K:treble] [B,D] | %131
!<(! (DE!<)!F)!>(! (FE!>)!D) | ([F,C]3 [F,C]) z |!p! [F,C] | [F,C]2 [F,C] [F,A,]2 [F,D] | %135
 (([G,D]3 [G,D]2)) [F,D] | [=E,C]2 [E,C] [C,C]2 [C,C] | (([F,C]3 [F,C])) z [B,D] | [B,D]2 [B,D] | %139
 [B,E]2 [B,C] | (([B,E]3 [B,D]2))!mf! F, |!<(! F,2!<)! F,!>(! F,2!>)! F, | B,,3- B,, z!p! B,, | %143
 B,,2 B,, B,,2 B,, | (B,,3 B,,2) |][K:F][M:3/4]!p! [F,C]>[F,C][F,C][F,C]!>![C,B,]>[C,B,] | %146
 [D,B,]2 [D,A,]2 z2 | [B,,F,]>[B,,F,]!<(! F,F,!<)!!>(! [C,A,]>[C,G,]!>)! | F,4 z2 | %149
 [F,C]>[F,C][F,C][F,C]!>![C,B,]>[C,B,] | [D,B,]2 [D,A,]2!mf!!<(! F,A,/B,/!<)! | %151
!>(! A,B,,/B,/!>)! x4 | A,4 z2 |!mf! [C,G,]>[C,C][C,C][C,C]!>![E,C]>[F,C] | [C,C]2 [C,C]2 z2 | %155
 [F,C]>[F,C][F,C]B,,!>!C,>C, | F,4 z2 |!f! [B,,F,]>[B,,F,][B,,F,][B,,F,][B,,F,][B,,F,] | %158
 [B,,F,]4!p! (G,,A,,) | B,,3 B,,=B,,B,, | C,4 z2 |!p! [F,C]>[F,C][F,C][F,C]!>![C,B,]>[C,B,] | %162
 [D,B,]2 [D,A,]2 z2 | [B,,F,]>[B,,F,]!<(! F,F,!<)!!>(! [C,A,]>[C,G,]!>)! | F,4 z2 | %165
 [F,C]>[F,C][F,C][F,C]!>![C,B,]>[C,B,] | (B,2 A,2)!mf!!<(! F,A,/B,/!<)! | %167
!>(! A,B,,/!>)!B,/ A,2 x2 | [D,A,]4!f!!<(! B,B,!<)! |!>(! [F,A,][B,,B,]!>)! C,2 C,2 | %170
 F,,3!p! F,,!<(!F,,!<)!F,, |!>(! B,,6!>)! | F,,6 |][K:G][M:6/8]!f! E, | (E,2 F, G,F,E,) | %175
 (C>B,A,) (B,B,,)!p!B,, | (B,,2 ^D, E,B,,C,) | D,2 D, G,,2 |!f! E, | (E,2 F, G,F,E,) | %180
 (C>B,A,) (B,B,,)!p!B,, | (B,,2 ^D, E,B,,C,) | D,2 D, G,,2 |!p! [G,D] | [G,D]2 [G,D] D>CB, | %185
 [F,D]2 [G,D] [D,D]2 [^D,B,] | [E,B,]2 [E,B,] B,>A,G, | B,,^D,E, B,,2!f! E, | (E,2 F, G,F,E,) | %189
 (A,>B,C) (B,B,,) | [^G,,E,] |!<(! [^G,,E,]2 G,, A,,2!<)!!>(! A,,!>)! | %192
!p! B,,2 [B,,A,] [E,^G,]2!mf! [^G,,E,] |!<(! [^G,,E,]2 G,,!<)! A,,2!>(! A,,!>)! | %194
 B,,2 B,, [E,,E,]2 |] %195
V:7
 x2 | x8 | C6 C2 | x6 DF | FEDE F2 C2 | x8 | C6 C2 | E4 D2 DF | FEDE F2 F2 | x8 | F4 F2 F2 | %11
 x4 D2 [DG]2 | (C4 C2) F2 | x8 | F4 F2 C_E | x8 | x6 C_E | x8 | x6 |][K:Bb][M:4/4] x8 | x8 | x8 | %22
 x8 | x8 | x8 | x8 | x8 |: _E4 D3 E | x8 | x8 | x8 | _A4 G2 BB | (F3 E) D4 :| _A4 G2 BB | %34
 (F3 E) D4 |][K:G][M:6/8] x | x3 C2 [CE] | CB,[A,D] [B,D]2 x | x6 | x5 | x | x3 [CE]2 [CE] | %42
 CB,[A,D] [B,D]2 x | x3 FGE | x5 | x | x6 | x6 | x3 [EG]2 [EG] | [EG][DF][^CE] [DF]2 x | x3 C2 C | %51
 CB,[A,D] B,2 [DF] | x6 | x6 | G2 [EG] x3 | D3 D2 x | [D=F][CE][A,C] [CE][B,D][A,C] | %57
 ([G,B,]3 [G,B,]2) |][K:C][M:3/4] x | x6 | x6 | x6 | x5 | x | x6 | [DG]4 x2 | x6 | x5 | x | x6 | %70
 x6 | x5 |][K:Eb][M:3/4] x6 | x6 | x6 | x6 | x6 | x6 | x6 | x6 | x6 | x6 | x6 | x6 | x6 | x6 | %86
 ([G,B,]6 | [G,B,]2) x2 x2 | x6 | x6 | x6 | x6 | x6 | x6 | ([B,D]6 | [B,D]2) x2 x2 | x6 | x6 | %98
 ([A,C]2 [CE]4) | x6 | x6 | x6 | ([G,B,]6 | [G,B,]2) x2 x2 |][K:G][M:4/4] x | x8 | x8 | x7 | x | %109
 x8 | x8 | x7 | x | x8 | x8 | z2 ED D4 | x4 z2 [EA]D | D4 x4 | x8 | x7 [EA] | x8 | x7 [EA] | x7 |] %123
[K:Bb][M:6/8] x | x6 | x6 | F2 F F2 F | x5 | x | x6 | x6 | F2 F F2 F | x5 | x | x3 A2 A | x6 | x6 | %137
 x6 | x3 | x3 | x6 | F3 x3 | x6 | [F_A][EG][DF] [DF][EG]C | x5 |][K:F][M:3/4] x6 | x6 | x2 CC E>E | %148
 F4 x2 | x6 | x4 FF | FD C2 E>E | x6 | x6 | x6 | x6 | x6 | x6 | x4 D2 | x6 | C4 x2 | x6 | x6 | %163
 x2 CC E>E | x6 | x6 | x4 FF | FD (C2 E>)E | x4 FF | FF/[DG]/ C3 B, | x6 | %171
 [C_E]2 [B,D][A,C] [B,D]2 | [A,C]6 |][K:G][M:6/8] x | x6 | x6 | x6 | C>D[CF] B,2 | x | x6 | x6 | %181
 x6 | C>D[CF] B,2 | x | x6 | A2 G x3 | x6 | B,2 B, B,2 x | x6 | x5 | x | E2 D ^C2 [CE] | x6 | %193
 E2 [DE] [DE]^CC | x5 |] %195
V:8
 x2 | x8 | x8 | x8 | C,4 F,2 F,2 | x8 | x8 | x8 | C,4 F,2 A,2 | x8 | x8 | x8 | x8 | x8 | x8 | x8 | %16
 x8 | x8 | x6 |][K:Bb][M:4/4] x8 | x8 | x8 | x8 | x8 | x8 | x8 | x8 |: F,4 F,4 | F,4 F,4 | x8 | %30
 x8 | B,4 [E,B,]2 [F,D][G,E] | x8 :| B,4 [E,B,]2 [F,D][G,E] | x8 |][K:G][M:6/8] x | x6 | x6 | x6 | %39
 x5 | x | x6 | x6 | x6 | x5 | x | x6 | D,2 D, D,3 | x6 | x6 | x6 | x6 | x6 | x6 | x6 | x6 | x6 | %57
 x5 |][K:C][M:3/4] x | x6 | x6 | x6 | x5 | x | x6 | x6 | x6 | x5 | x | x6 | x6 | x5 |] %72
[K:Eb][M:3/4] x6 | x6 | x6 | x6 | x6 | x6 | x6 | x6 | x6 | x6 | x6 | x6 | x6 | x6 | x6 | x6 | x6 | %89
 x6 | x6 | x6 | x6 | x6 | x6 | x6 | x6 | x6 | x6 | x6 | x6 | x6 | x6 | x6 |][K:G][M:4/4] x | x8 | %106
 x8 | x7 | x | x8 | x8 | x7 | x | x8 | x8 | x8 | x8 | x8 | x8 | x8 | x8 | B,,2 B,,2 C,3 A,, | x7 |] %123
[K:Bb][M:6/8] x | x6 | x5[K:treble] x | B,2 B, A,2 B, | x5 | x | x6 | x5[K:treble] x | %131
 B,2 B, A,2 B, | x5 | x | x6 | x6 | x6 | x6 | x3 | x3 | x6 | x6 | x6 | x6 | x5 |][K:F][M:3/4] x6 | %146
 x6 | x2 A,,F,,/A,,/ x2 | x6 | x6 | x4 D,C,/B,,/ | F,B,, [C,A,]2 [C,C]>[C,B,] | F,4 x2 | x6 | x6 | %155
 x6 | x6 | x6 | x6 | x6 | x6 | x6 | x6 | x2 A,,F,,/A,,/ x2 | x6 | x6 | D,4 D,C,/B,,/ | %167
 F,B,, C,2 [C,C]>[C,B,] | x4 B,,C,/D,/ | x6 | x6 | x6 | x6 |][K:G][M:6/8] x | x6 | x6 | x6 | x5 | %178
 x | x6 | x6 | x6 | x5 | x | x3 G,2 G, | x6 | x3 E,2 E, | x6 | x6 | x5 | x | x6 | x6 | x6 | x5 |] %195
V:9
 x2 | x8 | x8 | x8 | x8 | x8 | x8 | x8 | x8 | x8 | x8 | x8 | x8 | x8 | x8 | x8 | C6 F2 | x8 | x6 |] %19
[K:Bb][M:4/4] x8 | x8 | x8 | x8 | x8 | x8 | x8 | x8 |: x8 | x8 | x8 | x8 | x8 | x8 :| x8 | x8 |] %35
[K:G][M:6/8] x | x6 | D2 x x3 | x6 | x5 | x | x6 | D2 x x2 x | x3 A2 x | x5 | x | x6 | x6 | x6 | %49
 x6 | x6 | x6 | x6 | x6 | x6 | x6 | x6 | x5 |][K:C][M:3/4] x | x6 | x6 | x6 | x5 | x | x6 | x6 | %66
 x6 | x5 | x | x6 | x6 | x5 |][K:Eb][M:3/4] x6 | x6 | x6 | x6 | x6 | x6 | x6 | x6 | x6 | x6 | x6 | %83
 x6 | x6 | x6 | x6 | x6 | x6 | x6 | x6 | x6 | x6 | x6 | x6 | x6 | x6 | x6 | x6 | x6 | x6 | x6 | %102
 x6 | x6 |][K:G][M:4/4] x | x8 | x8 | x7 | x | x8 | x8 | x7 | x | x8 | x8 | x8 | x8 | x8 | x8 | %119
 x8 | x8 | x8 | x7 |][K:Bb][M:6/8] x | x6 | x6 | x6 | x5 | x | x6 | x6 | x6 | x5 | x | x6 | x6 | %136
 x6 | x6 | x3 | x3 | x6 | x6 | x6 | x6 | x5 |][K:F][M:3/4] x6 | x6 | x6 | x6 | x6 | x6 | x6 | x6 | %153
 x6 | x6 | x6 | x6 | x6 | x6 | x6 | x6 | x6 | x6 | x6 | x6 | x6 | x6 | x6 | x6 | x6 | x6 | x6 | %172
 x6 |][K:G][M:6/8] x | x6 | x6 | x6 | x5 | x | x6 | x6 | x6 | x5 | x | x6 | x6 | x6 | x6 | x6 | %189
 x5 | x | x6 | x6 | x6 | x5 |] %195
V:10
 x2 | x8 | x8 | x8 | x8 | x8 | x8 | x8 | x8 | x8 | x8 | x8 | x8 | x8 | x8 | x8 | x8 | x8 | x6 |] %19
[K:Bb][M:4/4] x8 | x8 | x8 | x8 | x8 | x8 | x8 | x8 |: x8 | x8 | x8 | x8 | x8 | x8 :| x8 | x8 |] %35
[K:G][M:6/8] x | x6 | x6 | x6 | x5 | x | x6 | x6 | x6 | x5 | x | x6 | x6 | x6 | x6 | x6 | D2 x4 | %52
 x6 | x6 | x6 | x6 | x6 | x5 |][K:C][M:3/4] x | x6 | x6 | x6 | x5 | x | x6 | x6 | x6 | x5 | x | %69
 x6 | x6 | x5 |][K:Eb][M:3/4] x6 | x6 | x6 | x6 | x6 | x6 | x6 | x6 | x6 | x6 | x6 | x6 | x6 | x6 | %86
 x6 | x6 | x6 | x6 | x6 | x6 | x6 | x6 | x6 | x6 | x6 | x6 | x6 | x6 | x6 | x6 | x6 | x6 |] %104
[K:G][M:4/4] x | x8 | x8 | x7 | x | x8 | x8 | x7 | x | x8 | x8 | x8 | x8 | x8 | x8 | x8 | x8 | x8 | %122
 x7 |][K:Bb][M:6/8] x | x6 | x6 | x6 | x5 | x | x6 | x6 | x6 | x5 | x | x6 | x6 | x6 | x6 | x3 | %139
 x3 | x6 | x6 | x6 | x6 | x5 |][K:F][M:3/4] x6 | x6 | x6 | x6 | x6 | x6 | x6 | x6 | x6 | x6 | x6 | %156
 x6 | x6 | x6 | x6 | x6 | x6 | x6 | x6 | x6 | x6 | x6 | x6 | x6 | x6 | x6 | x6 | x6 |] %173
[K:G][M:6/8] x | x6 | x6 | x6 | F2 x3 | x | x6 | x6 | x6 | F2 x3 | x | x6 | x6 | x6 | x6 | x6 | %189
 x5 | x | x6 | x6 | x6 | x5 |] %195

